public/images/dar-logo.svg

<svg xmlns="http://www.w3.org/2000/svg" width="316" height="145" viewBox="0 0 316 145" fill="none"><path d="M82.3993 0.722557H108.435V142H82.3993V130.092C74.73 139.914 63.8314 144.826 49.7037 144.826C36.1141 144.826 24.4756 139.713 14.788 129.487C5.23492 119.127 0.458397 106.479 0.458397 91.5438C0.458397 76.6087 5.23492 64.0283 14.788 53.8025C24.4756 43.4422 36.1141 38.262 49.7037 38.262C63.8314 38.262 74.73 43.1731 82.3993 52.9952V0.722557ZM34.365 112.13C39.747 117.377 46.4745 120.001 54.5475 120.001C62.6205 120.001 69.2807 117.377 74.5281 112.13C79.7756 106.748 82.3993 99.8859 82.3993 91.5438C82.3993 83.2017 79.7756 76.4069 74.5281 71.1595C69.2807 65.7775 62.6205 63.0865 54.5475 63.0865C46.4745 63.0865 39.747 65.7775 34.365 71.1595C29.1175 76.4069 26.4938 83.2017 26.4938 91.5438C26.4938 99.8859 29.1175 106.748 34.365 112.13ZM208.939 41.0875H234.974V142H208.939V130.092C201.135 139.914 190.169 144.826 176.041 144.826C162.586 144.826 151.015 139.713 141.327 129.487C131.774 119.127 126.998 106.479 126.998 91.5438C126.998 76.6087 131.774 64.0283 141.327 53.8025C151.015 43.4422 162.586 38.262 176.041 38.262C190.169 38.262 201.135 43.1731 208.939 52.9952V41.0875ZM160.904 112.13C166.152 117.377 172.812 120.001 180.885 120.001C188.958 120.001 195.618 117.377 200.866 112.13C206.248 106.748 208.939 99.8859 208.939 91.5438C208.939 83.2017 206.248 76.4069 200.866 71.1595C195.618 65.7775 188.958 63.0865 180.885 63.0865C172.812 63.0865 166.152 65.7775 160.904 71.1595C155.657 76.4069 153.033 83.2017 153.033 91.5438C153.033 99.8859 155.657 106.748 160.904 112.13ZM284.618 58.4445C287.04 51.9861 291.01 47.1423 296.526 43.9131C302.177 40.6839 308.434 39.0693 315.296 39.0693V68.1321C307.357 67.1902 300.226 68.8048 293.902 72.9759C287.713 77.1469 284.618 84.0762 284.618 93.7638V142H258.583V41.0875H284.618V58.4445Z" fill="#F8FDDA"></path></svg>

<svg xmlns="http://www.w3.org/2000/svg" width="316" height="145" fill="none" viewBox="0 0 316 145"><path fill="#f8fdda" d="M82.4.723h26.035V142H82.399v-11.908q-11.504 14.734-32.695 14.734-20.385 0-34.916-15.339Q.458 113.947.458 91.544t14.33-37.741q14.532-15.54 34.916-15.541 21.191 0 32.695 14.733zM34.364 112.13q8.074 7.87 20.182 7.871 12.11 0 19.981-7.871 7.872-8.073 7.871-20.586t-7.87-20.385q-7.872-8.073-19.981-8.073T34.365 71.16q-7.872 7.872-7.871 20.385t7.871 20.586m174.574-71.042h26.035V142h-26.035v-11.908q-11.706 14.734-32.898 14.734-20.182 0-34.714-15.339-14.33-15.54-14.329-37.943t14.329-37.741q14.532-15.54 34.714-15.541 21.192 0 32.898 14.733zm-48.035 71.042q7.872 7.87 19.981 7.871 12.11 0 19.981-7.871 8.073-8.073 8.073-20.586t-8.073-20.385q-7.872-8.073-19.981-8.073t-19.981 8.073q-7.87 7.872-7.871 20.385 0 12.513 7.871 20.586m123.714-53.685q3.634-9.689 11.908-14.532 8.477-4.844 18.77-4.844v29.063q-11.908-1.413-21.394 4.844-9.284 6.256-9.284 20.788V142h-26.035V41.088h26.035z"/></svg>
